;FLAVOR:Marlin
;TIME:25119
;Filament used: 19.176m
;Layer height: 0.3
;MINX:2.223
;MINY:2.211
;MINZ:0.2
;MAXX:197.78
;MAXY:197.789
;MAXZ:5
;Generated with Cura_SteamEngine 4.5.0
M140 S60
M105
M190 S60
M104 S210
M105
M109 S210
M82 ;absolute extrusion mode
G21 ;metric values
 G90 ;absolute positioning
 M82 ;set extruder to absolute mode
 M107 ;start with the fan off
 G28 X0 Y0 ;move X/Y to min endstops
 G28 Z0 ;move Z to min endstops
 G1 Z15.0 F90 ;move the platform down 15mm
 G92 E0 ;zero the extruded length
 G1 F200 E6 ;extrude 6 mm of feed stock
 G92 E0 ;zero the extruded length again
 G1 F90 
 ;Put printing message on LCD screen
 M117 Printing...
G92 E0
G92 E0
G1 F1800 E-0.5
;LAYER_COUNT:17
;LAYER:0
M107
G0 F1350 X30.188 Y31.534 Z0.2
;TYPE:SKIRT
G1 F1800 E0
G1 F600 X34.407 Y27.48 E0.19461
G1 X38.863 Y23.685 E0.38928
G1 X43.536 Y20.165 E0.58387
G1 X48.412 Y16.929 E0.77851
G1 X53.471 Y13.992 E0.97307
G1 X58.701 Y11.361 E1.16779
G1 X64.072 Y9.049 E1.36228
G1 X69.58 Y7.062 E1.55703
G1 X75.19 Y5.408 E1.75156
G1 X80.889 Y4.092 E1.9461
G1 X86.663 Y3.12 E2.14085
G1 X92.48 Y2.495 E2.33543
G1 X98.324 Y2.218 E2.53002
G1 X98.792 Y2.211 E2.54559
G1 X104.175 Y2.292 E2.72465
G1 X110.009 Y2.715 E2.9192
G1 X115.81 Y3.487 E3.11384
G1 X121.553 Y4.603 E3.30843
G1 X127.222 Y6.062 E3.50312
G1 X132.79 Y7.857 E3.6977
G1 X138.245 Y9.984 E3.89244
G1 X143.555 Y12.428 E4.08686
G1 X148.716 Y15.19 E4.28155
G1 X153.7 Y18.252 E4.47611
G1 X158.494 Y21.61 E4.67078
G1 X163.077 Y25.246 E4.86536
G1 X167.435 Y29.151 E5.05998
G1 X171.551 Y33.308 E5.25455
G1 X175.412 Y37.708 E5.44925
G1 X179.001 Y42.326 E5.64378
G1 X182.31 Y47.154 E5.83846
G1 X185.322 Y52.17 E6.03306
G1 X188.03 Y57.357 E6.22767
G1 X190.423 Y62.695 E6.42224
G1 X192.493 Y68.171 E6.61695
G1 X194.231 Y73.758 E6.81156
G1 X195.631 Y79.438 E7.00613
G1 X196.69 Y85.193 E7.20076
G1 X197.402 Y91 E7.39534
G1 X197.766 Y96.841 E7.58999
G1 X197.78 Y102.692 E7.7846
G1 X197.444 Y108.534 E7.97922
G1 X196.759 Y114.345 E8.17384
G1 X195.728 Y120.105 E8.36846
G1 X194.355 Y125.791 E8.56301
G1 X192.644 Y131.387 E8.75764
G1 X190.601 Y136.871 E8.95229
G1 X188.232 Y142.224 E9.14698
G1 X185.55 Y147.422 E9.34153
G1 X182.561 Y152.452 E9.53614
G1 X179.277 Y157.295 E9.73075
G1 X175.708 Y161.932 E9.92537
G1 X171.871 Y166.347 E10.11992
G1 X167.773 Y170.526 E10.3146
G1 X163.434 Y174.451 E10.5092
G1 X158.867 Y178.11 E10.70383
G1 X154.091 Y181.49 E10.89844
G1 X149.12 Y184.577 E11.09306
G1 X143.975 Y187.362 E11.28765
G1 X138.67 Y189.834 E11.48231
G1 X133.232 Y191.985 E11.67681
G1 X127.669 Y193.807 E11.87151
G1 X122.011 Y195.294 E12.06609
G1 X116.268 Y196.437 E12.26085
G1 X110.474 Y197.236 E12.45538
G1 X104.64 Y197.687 E12.65
G1 X98.792 Y197.789 E12.84453
G1 X92.944 Y197.54 E13.03921
G1 X87.124 Y196.942 E13.23381
G1 X81.349 Y195.998 E13.42843
G1 X75.642 Y194.709 E13.62303
G1 X70.022 Y193.082 E13.81763
G1 X64.509 Y191.122 E14.01224
G1 X59.122 Y188.834 E14.2069
G1 X53.884 Y186.231 E14.40144
G1 X48.808 Y183.315 E14.59614
G1 X43.917 Y180.104 E14.79074
G1 X39.228 Y176.606 E14.98532
G1 X34.755 Y172.833 E15.17995
G1 X30.516 Y168.8 E15.37455
G1 X26.525 Y164.517 E15.56927
G1 X22.799 Y160.009 E15.76379
G1 X19.348 Y155.283 E15.95842
G1 X16.186 Y150.358 E16.15308
G1 X13.325 Y145.258 E16.34758
G1 X10.774 Y139.988 E16.54231
G1 X8.542 Y134.582 E16.73684
G1 X6.638 Y129.049 E16.93146
G1 X5.067 Y123.414 E17.12603
G1 X3.837 Y117.692 E17.32069
G1 X2.951 Y111.905 E17.51541
G1 X2.412 Y106.081 E17.70994
G1 X2.223 Y100.234 E17.90452
G1 X2.384 Y94.386 E18.0991
G1 X2.895 Y88.556 E18.29375
G1 X3.753 Y82.769 E18.48833
G1 X4.958 Y77.039 E18.68308
G1 X6.5 Y71.397 E18.87761
G1 X8.376 Y65.857 E19.07215
G1 X10.586 Y60.434 E19.26692
G1 X13.109 Y55.16 E19.46138
G1 X15.948 Y50.04 E19.6561
G1 X19.084 Y45.104 E19.8506
G1 X22.513 Y40.361 E20.04526
G1 X26.22 Y35.832 E20.23992
G1 X30.188 Y31.534 E20.43448
G0 F1350 X30.482 Y31.806
G1 F600 X34.684 Y27.769 E20.62829
G1 X39.121 Y23.99 E20.82213
G1 X43.776 Y20.485 E21.01594
G1 X48.632 Y17.263 E21.20977
G1 X53.671 Y14.338 E21.40356
G1 X58.88 Y11.719 E21.59748
G1 X64.229 Y9.417 E21.79116
G1 X69.715 Y7.438 E21.98514
G1 X75.303 Y5.792 E22.17889
G1 X80.978 Y4.482 E22.3726
G1 X86.728 Y3.515 E22.56653
G1 X92.521 Y2.893 E22.76032
G1 X98.342 Y2.617 E22.95414
G1 X104.169 Y2.692 E23.14797
G1 X109.98 Y3.114 E23.34175
G1 X115.757 Y3.883 E23.53559
G1 X121.476 Y4.995 E23.72936
G1 X127.121 Y6.449 E23.92325
G1 X132.667 Y8.237 E24.11706
G1 X138.098 Y10.356 E24.31095
G1 X143.387 Y12.791 E24.50462
G1 X148.526 Y15.542 E24.69849
G1 X153.49 Y18.592 E24.89227
G1 X158.264 Y21.937 E25.08615
G1 X162.828 Y25.559 E25.27994
G1 X167.167 Y29.448 E25.47374
G1 X171.266 Y33.589 E25.66753
G1 X175.111 Y37.972 E25.86146
G1 X178.685 Y42.571 E26.05518
G1 X181.979 Y47.379 E26.24902
G1 X184.979 Y52.375 E26.44285
G1 X187.675 Y57.541 E26.63666
G1 X190.058 Y62.858 E26.83045
G1 X192.118 Y68.311 E27.02433
G1 X193.848 Y73.876 E27.21816
G1 X195.243 Y79.533 E27.41195
G1 X196.296 Y85.264 E27.60576
G1 X197.005 Y91.047 E27.79954
G1 X197.367 Y96.865 E27.99342
G1 X197.38 Y102.692 E28.18723
G1 X197.045 Y108.51 E28.38106
G1 X196.362 Y114.297 E28.57487
G1 X195.334 Y120.034 E28.76872
G1 X193.966 Y125.696 E28.96246
G1 X192.261 Y131.269 E29.1563
G1 X190.226 Y136.73 E29.35013
G1 X187.867 Y142.061 E29.54403
G1 X185.195 Y147.238 E29.7378
G1 X182.218 Y152.247 E29.9316
G1 X178.946 Y157.069 E30.12542
G1 X175.392 Y161.687 E30.31923
G1 X171.57 Y166.083 E30.51298
G1 X167.488 Y170.245 E30.70687
G1 X163.166 Y174.154 E30.9007
G1 X158.618 Y177.798 E31.09453
G1 X153.861 Y181.163 E31.28833
G1 X148.91 Y184.237 E31.48216
G1 X143.785 Y187.01 E31.67597
G1 X138.502 Y189.471 E31.86982
G1 X133.085 Y191.613 E32.06356
G1 X127.546 Y193.427 E32.25742
G1 X121.91 Y194.907 E32.45123
G1 X116.191 Y196.045 E32.64517
G1 X110.421 Y196.84 E32.83889
G1 X104.611 Y197.288 E33.03271
G1 X98.786 Y197.389 E33.22648
G1 X92.962 Y197.141 E33.42036
G1 X87.165 Y196.544 E33.61419
G1 X81.414 Y195.603 E33.80801
G1 X75.731 Y194.319 E34.00179
G1 X70.135 Y192.698 E34.19557
G1 X64.644 Y190.746 E34.3894
G1 X59.279 Y188.466 E34.58328
G1 X54.063 Y185.873 E34.77702
G1 X49.008 Y182.969 E34.97092
G1 X44.137 Y179.77 E35.16475
G1 X39.468 Y176.286 E35.35851
G1 X35.013 Y172.528 E35.55236
G1 X30.792 Y168.511 E35.74616
G1 X26.818 Y164.245 E35.94008
G1 X23.108 Y159.755 E36.1338
G1 X19.671 Y155.048 E36.32765
G1 X16.523 Y150.143 E36.5215
G1 X13.675 Y145.063 E36.7152
G1 X11.134 Y139.815 E36.90913
G1 X8.912 Y134.43 E37.10289
G1 X7.016 Y128.92 E37.2967
G1 X5.453 Y123.308 E37.49046
G1 X4.228 Y117.609 E37.68434
G1 X3.346 Y111.846 E37.87825
G1 X2.811 Y106.045 E38.07201
G1 X2.623 Y100.222 E38.26578
G1 X2.784 Y94.398 E38.45956
G1 X3.294 Y88.592 E38.65341
G1 X4.148 Y82.828 E38.84722
G1 X5.349 Y77.122 E39.04116
G1 X6.886 Y71.504 E39.23488
G1 X8.755 Y65.987 E39.42862
G1 X10.956 Y60.586 E39.6226
G1 X13.469 Y55.333 E39.81628
G1 X16.298 Y50.235 E40.0102
G1 X19.421 Y45.319 E40.20391
G1 X22.836 Y40.596 E40.39776
G1 X26.529 Y36.086 E40.59164
G1 X30.482 Y31.806 E40.78542
G0 F1350 X30.775 Y32.078
G1 F600 X34.96 Y28.058 E40.97842
G1 X39.38 Y24.295 E41.1715
G1 X44.016 Y20.805 E41.3645
G1 X48.853 Y17.597 E41.55754
G1 X53.871 Y14.684 E41.75053
G1 X59.059 Y12.077 E41.94364
G1 X64.386 Y9.785 E42.13652
G1 X69.85 Y7.815 E42.32971
G1 X75.415 Y6.176 E42.52266
G1 X81.067 Y4.872 E42.71558
G1 X86.794 Y3.909 E42.90874
G1 X92.563 Y3.29 E43.10172
G1 X98.36 Y3.017 E43.29474
G1 X104.163 Y3.092 E43.48777
G1 X109.95 Y3.513 E43.68075
G1 X115.703 Y4.279 E43.87378
G1 X121.399 Y5.388 E44.06679
G1 X127.02 Y6.836 E44.25985
G1 X132.543 Y8.618 E44.45287
G1 X137.952 Y10.729 E44.64599
G1 X143.219 Y13.154 E44.83885
G1 X148.337 Y15.894 E45.03193
G1 X153.279 Y18.932 E45.22488
G1 X158.034 Y22.264 E45.41799
G1 X162.578 Y25.872 E45.61098
G1 X166.9 Y29.746 E45.80402
G1 X170.981 Y33.87 E45.99699
G1 X174.81 Y38.235 E46.19012
G1 X178.368 Y42.815 E46.38301
G1 X181.649 Y47.605 E46.57612
G1 X184.635 Y52.58 E46.7691
G1 X187.32 Y57.725 E46.96213
G1 X189.692 Y63.021 E47.15514
G1 X191.744 Y68.452 E47.34823
G1 X193.466 Y73.994 E47.54125
G1 X194.854 Y79.628 E47.73425
G1 X195.903 Y85.335 E47.92724
G1 X196.608 Y91.095 E48.12025
G1 X196.967 Y96.888 E48.31329
G1 X196.98 Y102.692 E48.50634
G1 X196.645 Y108.487 E48.6994
G1 X195.965 Y114.249 E48.89238
G1 X194.94 Y119.962 E49.08543
G1 X193.578 Y125.601 E49.27837
G1 X191.879 Y131.151 E49.47142
G1 X189.852 Y136.59 E49.66448
G1 X187.501 Y141.898 E49.85756
G1 X184.84 Y147.053 E50.05052
G1 X181.874 Y152.042 E50.24356
G1 X178.616 Y156.844 E50.43657
G1 X175.075 Y161.443 E50.62962
G1 X171.269 Y165.82 E50.82254
G1 X167.203 Y169.964 E51.01563
G1 X162.899 Y173.856 E51.20863
G1 X158.368 Y177.485 E51.40171
G1 X153.631 Y180.836 E51.5947
G1 X148.7 Y183.896 E51.78772
G1 X143.596 Y186.658 E51.98074
G1 X138.334 Y189.108 E52.1738
G1 X132.939 Y191.24 E52.36674
G1 X127.422 Y193.046 E52.55982
G1 X121.81 Y194.519 E52.7528
G1 X116.114 Y195.652 E52.94596
G1 X110.367 Y196.444 E53.13891
G1 X104.581 Y196.889 E53.33192
G1 X98.78 Y196.989 E53.52489
G1 X92.98 Y196.741 E53.71798
G1 X87.207 Y196.147 E53.911
G1 X81.48 Y195.208 E54.10403
G1 X75.82 Y193.929 E54.29702
G1 X70.247 Y192.314 E54.49001
G1 X64.779 Y190.369 E54.68304
G1 X59.436 Y188.098 E54.87613
G1 X54.242 Y185.515 E55.06907
G1 X49.208 Y182.623 E55.26216
G1 X44.358 Y179.436 E55.45519
G1 X39.708 Y175.966 E55.64816
G1 X35.272 Y172.223 E55.84121
G1 X31.069 Y168.222 E56.03421
G1 X27.111 Y163.973 E56.22735
G1 X23.417 Y159.501 E56.42027
G1 X19.995 Y154.813 E56.61332
G1 X16.86 Y149.928 E56.80637
G1 X14.024 Y144.868 E56.9993
G1 X11.494 Y139.641 E57.19245
G1 X9.282 Y134.278 E57.3854
G1 X7.395 Y128.79 E57.57842
G1 X5.838 Y123.201 E57.77139
G1 X4.619 Y117.526 E57.96444
G1 X3.742 Y111.786 E58.15757
G1 X3.209 Y106.009 E58.35053
G1 X3.023 Y100.21 E58.54351
G1 X3.184 Y94.41 E58.73649
G1 X3.692 Y88.628 E58.92954
G1 X4.544 Y82.888 E59.12254
G1 X5.74 Y77.205 E59.3157
G1 X7.271 Y71.61 E59.50863
G1 X9.133 Y66.116 E59.70157
G1 X11.326 Y60.737 E59.89478
G1 X13.829 Y55.507 E60.08762
G1 X16.647 Y50.43 E60.28075
G1 X19.758 Y45.534 E60.47369
G1 X23.16 Y40.831 E60.66675
G1 X26.838 Y36.34 E60.85982
G1 X30.775 Y32.078 E61.0528
G0 F1350 X31.068 Y32.35
G1 F600 X35.236 Y28.347 E61.24501
G1 X39.638 Y24.6 E61.43728
G1 X44.256 Y21.125 E61.6295
G1 X49.073 Y17.931 E61.82173
G1 X54.071 Y15.031 E62.01392
G1 X59.238 Y12.435 E62.20625
G1 X64.544 Y10.153 E62.39836
G1 X69.985 Y8.191 E62.59073
G1 X75.527 Y6.56 E62.78288
G1 X81.156 Y5.262 E62.97501
G1 X86.859 Y4.304 E63.16735
G1 X92.605 Y3.688 E63.35956
G1 X98.378 Y3.417 E63.55178
G1 X104.157 Y3.492 E63.74401
G1 X109.92 Y3.911 E63.93619
G1 X115.649 Y4.676 E64.12843
G1 X121.322 Y5.78 E64.32065
G1 X126.92 Y7.223 E64.51293
G1 X132.42 Y8.998 E64.70515
G1 X137.806 Y11.101 E64.89746
G1 X143.051 Y13.517 E65.08953
G1 X148.147 Y16.246 E65.2818
G1 X153.069 Y19.273 E65.47398
G1 X157.804 Y22.591 E65.66629
G1 X162.329 Y26.185 E65.85849
G1 X166.632 Y30.043 E66.05071
G1 X170.696 Y34.151 E66.2429
G1 X174.508 Y38.498 E66.4352
G1 X178.052 Y43.06 E66.62734
G1 X181.318 Y47.83 E66.81961
G1 X184.292 Y52.785 E67.01182
G1 X186.965 Y57.91 E67.20407
G1 X189.327 Y63.184 E67.39628
G1 X191.369 Y68.592 E67.58854
G1 X193.084 Y74.112 E67.7808
G1 X194.466 Y79.723 E67.973
G1 X195.509 Y85.407 E68.1652
G1 X196.211 Y91.143 E68.35741
G1 X196.568 Y96.912 E68.54965
G1 X196.58 Y102.692 E68.74189
G1 X196.246 Y108.463 E68.93416
G1 X195.568 Y114.201 E69.12633
G1 X194.547 Y119.891 E69.31861
G1 X193.189 Y125.506 E69.51075
G1 X191.497 Y131.033 E69.703
G1 X189.477 Y136.449 E69.89526
G1 X187.136 Y141.735 E70.08754
G1 X184.485 Y146.869 E70.27972
G1 X181.531 Y151.837 E70.47196
G1 X178.285 Y156.619 E70.66419
G1 X174.759 Y161.198 E70.85641
G1 X170.967 Y165.557 E71.04857
G1 X166.918 Y169.683 E71.24084
G1 X162.631 Y173.559 E71.43307
G1 X158.119 Y177.172 E71.62532
G1 X153.401 Y180.509 E71.81752
G1 X148.489 Y183.556 E72.00978
G1 X143.406 Y186.306 E72.202
G1 X138.166 Y188.745 E72.39423
G1 X132.793 Y190.868 E72.58638
G1 X127.299 Y192.666 E72.77865
G1 X121.709 Y194.132 E72.97086
G1 X116.036 Y195.26 E73.16324
G1 X110.313 Y196.047 E73.35538
G1 X104.551 Y196.491 E73.54759
G1 X98.774 Y196.589 E73.73977
G1 X92.998 Y196.341 E73.93205
G1 X87.249 Y195.749 E74.12428
G1 X81.545 Y194.814 E74.31652
G1 X75.909 Y193.539 E74.50872
G1 X70.359 Y191.93 E74.70091
G1 X64.914 Y189.993 E74.89313
G1 X59.594 Y187.73 E75.08542
G1 X54.421 Y185.157 E75.27758
G1 X49.408 Y182.276 E75.46989
G1 X44.578 Y179.102 E75.66211
G1 X39.948 Y175.646 E75.85428
G1 X35.53 Y171.918 E76.04655
G1 X31.345 Y167.933 E76.23875
G1 X27.405 Y163.701 E76.43107
G1 X23.726 Y159.247 E76.62321
G1 X20.319 Y154.578 E76.81545
G1 X17.197 Y149.712 E77.00774
G1 X14.373 Y144.673 E77.19986
G1 X11.855 Y139.468 E77.39217
G1 X9.652 Y134.127 E77.58433
G1 X7.773 Y128.661 E77.77658
G1 X6.224 Y123.095 E77.96874
G1 X5.01 Y117.443 E78.16101
G1 X4.138 Y111.727 E78.35333
G1 X3.608 Y105.973 E78.54551
G1 X3.423 Y100.198 E78.73769
G1 X3.584 Y94.422 E78.92988
G1 X4.091 Y88.664 E79.12213
G1 X4.94 Y82.947 E79.31436
G1 X6.132 Y77.288 E79.50671
G1 X7.657 Y71.717 E79.69882
G1 X9.512 Y66.245 E79.89099
G1 X11.696 Y60.889 E80.08338
G1 X14.19 Y55.68 E80.27546
G1 X16.996 Y50.625 E80.46776
G1 X20.095 Y45.75 E80.65989
G1 X23.484 Y41.066 E80.85218
G1 X27.147 Y36.594 E81.04445
G1 X31.068 Y32.35 E81.23663
G0 F1350 X31.361 Y32.622
G1 F600 X35.513 Y28.636 E81.42806
G1 X39.897 Y24.905 E81.61953
G1 X44.495 Y21.445 E81.81092
G1 X49.294 Y18.265 E82.0024
G1 X54.271 Y15.377 E82.19378
G1 X59.417 Y12.792 E82.38532
G1 X64.701 Y10.52 E82.57663
G1 X70.12 Y8.568 E82.7682
G1 X75.639 Y6.944 E82.95954
G1 X81.245 Y5.652 E83.15089
G1 X86.925 Y4.699 E83.34245
G1 X92.647 Y4.086 E83.53385
G1 X98.396 Y3.816 E83.72527
G1 X104.151 Y3.892 E83.9167
G1 X109.89 Y4.31 E84.10809
G1 X115.595 Y5.072 E84.29952
G1 X121.244 Y6.173 E84.49094
G1 X126.819 Y7.61 E84.68243
G1 X132.296 Y9.378 E84.87385
G1 X137.66 Y11.473 E85.06538
G1 X142.883 Y13.88 E85.25666
G1 X147.958 Y16.599 E85.44816
G1 X152.859 Y19.613 E85.63952
G1 X157.573 Y22.918 E85.83101
G1 X162.079 Y26.497 E86.0224
G1 X166.364 Y30.34 E86.21384
G1 X170.411 Y34.431 E86.40523
G1 X174.207 Y38.761 E86.59676
G1 X177.735 Y43.305 E86.7881
G1 X180.988 Y48.055 E86.97958
G1 X183.949 Y52.99 E87.171
G1 X186.61 Y58.094 E87.36244
G1 X188.962 Y63.346 E87.55384
G1 X190.995 Y68.733 E87.74535
G1 X192.702 Y74.23 E87.93679
G1 X194.077 Y79.818 E88.12819
G1 X195.115 Y85.478 E88.31958
G1 X195.814 Y91.191 E88.51102
G1 X196.169 Y96.936 E88.70246
G1 X196.18 Y102.692 E88.89391
G1 X195.847 Y108.439 E89.08537
G1 X195.171 Y114.154 E89.27678
G1 X194.153 Y119.819 E89.46822
G1 X192.8 Y125.412 E89.65961
G1 X191.115 Y130.915 E89.85102
G1 X189.103 Y136.309 E90.0425
G1 X186.771 Y141.573 E90.234
G1 X184.13 Y146.685 E90.42537
G1 X181.187 Y151.632 E90.61683
G1 X177.955 Y156.393 E90.80822
G1 X174.442 Y160.953 E90.99967
G1 X170.666 Y165.294 E91.19103
G1 X166.633 Y169.403 E91.38253
G1 X162.363 Y173.262 E91.57395
G1 X157.87 Y176.859 E91.76538
G1 X153.17 Y180.182 E91.95683
G1 X148.279 Y183.216 E92.14826
G1 X143.217 Y185.953 E92.33966
G1 X137.998 Y188.382 E92.53112
G1 X132.647 Y190.496 E92.72248
G1 X127.175 Y192.286 E92.91397
G1 X121.608 Y193.745 E93.10539
G1 X115.959 Y194.868 E93.29695
G1 X110.259 Y195.651 E93.48831
G1 X104.521 Y196.092 E93.67972
G1 X98.768 Y196.189 E93.87109
G1 X93.016 Y195.942 E94.06258
G1 X87.291 Y195.351 E94.25401
G1 X81.611 Y194.419 E94.44545
G1 X75.998 Y193.15 E94.63685
G1 X70.471 Y191.546 E94.82827
G1 X65.049 Y189.616 E95.01969
G1 X59.751 Y187.363 E95.21117
G1 X54.6 Y184.8 E95.40253
G1 X49.608 Y181.93 E95.59405
G1 X44.799 Y178.768 E95.78548
G1 X40.187 Y175.326 E95.97688
G1 X35.789 Y171.613 E96.16832
G1 X31.621 Y167.643 E96.35977
G1 X27.698 Y163.429 E96.55126
G1 X24.035 Y158.993 E96.7426
G1 X20.642 Y154.342 E96.93409
G1 X17.535 Y149.497 E97.12552
G1 X14.723 Y144.478 E97.31687
G1 X12.215 Y139.295 E97.50838
G1 X10.022 Y133.975 E97.69976
G1 X8.152 Y128.532 E97.89118
G1 X6.61 Y122.988 E98.08258
G1 X5.402 Y117.359 E98.27406
G1 X4.533 Y111.667 E98.46557
G1 X4.006 Y105.937 E98.65696
G1 X3.823 Y100.186 E98.84833
G1 X3.984 Y94.434 E99.03972
G1 X4.489 Y88.7 E99.23117
