;FLAVOR:Marlin
;TIME:43553
;Filament used: 40.1814m
;Layer height: 0.3
;MINX:2.223
;MINY:0.21
;MINZ:0.2
;MAXX:197.773
;MAXY:195.764
;MAXZ:131.9
;Generated with Cura_SteamEngine 4.5.0
M140 S60
M105
M190 S60
M104 S210
M105
M109 S210
M82 ;absolute extrusion mode
G21 ;metric values
 G90 ;absolute positioning
 M82 ;set extruder to absolute mode
 M107 ;start with the fan off
 G28 X0 Y0 ;move X/Y to min endstops
 G28 Z0 ;move Z to min endstops
 G1 Z15.0 F90 ;move the platform down 15mm
 G92 E0 ;zero the extruded length
 G1 F200 E6 ;extrude 6 mm of feed stock
 G92 E0 ;zero the extruded length again
 G1 F90 
 ;Put printing message on LCD screen
 M117 Printing...
G92 E0
G92 E0
G1 F1800 E-0.5
;LAYER_COUNT:440
;LAYER:0
M107
G0 F1350 X28.944 Y30.819 Z0.2
;TYPE:SKIRT
G1 F1800 E0
G1 F600 X33.345 Y26.449 E0.20628
G1 X38.014 Y22.368 E0.41253
G1 X42.932 Y18.59 E0.6188
G1 X48.082 Y15.131 E0.82514
G1 X53.439 Y12.006 E1.03141
G1 X58.983 Y9.227 E1.23768
G1 X64.69 Y6.805 E1.44388
G1 X70.544 Y4.75 E1.65023
G1 X76.509 Y3.07 E1.85635
G1 X82.576 Y1.771 E2.06271
G1 X88.711 Y0.859 E2.269
G1 X94.89 Y0.338 E2.47525
G1 X101.089 Y0.21 E2.68147
G1 X107.28 Y0.472 E2.88757
G1 X113.451 Y1.129 E3.09398
G1 X119.565 Y2.176 E3.30029
G1 X125.598 Y3.609 E3.50653
G1 X131.527 Y5.419 E3.71271
G1 X137.333 Y7.604 E3.91904
G1 X142.987 Y10.15 E4.12528
G1 X148.469 Y13.052 E4.33159
G1 X153.753 Y16.292 E4.53774
G1 X158.825 Y19.865 E4.74409
G1 X163.657 Y23.748 E4.95027
G1 X168.235 Y27.932 E5.15654
G1 X172.539 Y32.396 E5.36279
G1 X176.552 Y37.125 E5.56908
G1 X180.255 Y42.1 E5.77535
G1 X183.636 Y47.297 E5.98156
G1 X186.681 Y52.7 E6.18784
G1 X189.377 Y58.283 E6.39405
G1 X191.714 Y64.029 E6.60036
G1 X191.999 Y64.793 E6.62749
G1 X193.779 Y70.199 E6.81679
G1 X195.353 Y76.196 E7.023
G1 X196.541 Y82.286 E7.22937
G1 X197.343 Y88.432 E7.43552
G1 X197.753 Y94.622 E7.64186
G1 X197.773 Y100.821 E7.84804
G1 X197.757 Y101.321 E7.86467
G1 X197.395 Y107.015 E8.05444
G1 X196.629 Y113.166 E8.2606
G1 X195.473 Y119.261 E8.46694
G1 X193.932 Y125.27 E8.67327
G1 X192.015 Y131.166 E8.87947
G1 X189.774 Y136.816 E9.08163
G1 X187.136 Y142.421 E9.28767
G1 X184.142 Y147.855 E9.49403
G1 X180.816 Y153.085 E9.70017
G1 X177.161 Y158.098 E9.90652
G1 X173.192 Y162.869 E10.11293
G1 X168.933 Y167.376 E10.31918
G1 X164.393 Y171.607 E10.52559
G1 X159.6 Y175.539 E10.73178
G1 X154.563 Y179.161 E10.93813
G1 X149.308 Y182.455 E11.14441
G1 X143.853 Y185.411 E11.35077
G1 X138.224 Y188.013 E11.55703
G1 X132.44 Y190.254 E11.76334
G1 X126.524 Y192.124 E11.9697
G1 X120.508 Y193.616 E12.17586
G1 X120.018 Y193.72 E12.19252
G1 X114.397 Y194.722 E12.38242
G1 X108.24 Y195.439 E12.58858
G1 X102.044 Y195.764 E12.79495
G1 X95.846 Y195.697 E13.00111
G1 X89.66 Y195.237 E13.20742
G1 X83.515 Y194.384 E13.41376
G1 X77.435 Y193.142 E13.62016
G1 X71.452 Y191.522 E13.82632
G1 X65.577 Y189.521 E14.03275
G1 X59.845 Y187.153 E14.23902
G1 X54.274 Y184.428 E14.4453
G1 X48.887 Y181.354 E14.65159
G1 X43.703 Y177.943 E14.85798
G1 X38.75 Y174.216 E15.06415
G1 X34.039 Y170.176 E15.27056
G1 X29.596 Y165.847 E15.47689
G1 X25.438 Y161.246 E15.68315
G1 X21.578 Y156.392 E15.88942
G1 X18.034 Y151.303 E16.09568
G1 X14.818 Y145.995 E16.3021
G1 X11.948 Y140.498 E16.50835
G1 X9.431 Y134.83 E16.71462
G1 X7.222 Y128.862 E16.92628
G1 X7.063 Y128.38 E16.94316
G1 X5.449 Y122.908 E17.13291
G1 X4.059 Y116.862 E17.33925
G1 X3.056 Y110.741 E17.54555
G1 X2.443 Y104.57 E17.7518
G1 X2.223 Y98.373 E17.95805
G1 X2.394 Y92.177 E18.16421
G1 X2.959 Y85.997 E18.37061
G1 X3.914 Y79.871 E18.57682
G1 X5.259 Y73.813 E18.78322
G1 X6.981 Y67.859 E18.98937
G1 X9.077 Y62.023 E19.19561
G1 X11.542 Y56.33 E19.40195
G1 X14.357 Y50.809 E19.60807
G1 X17.521 Y45.473 E19.8144
G1 X21.019 Y40.348 E20.02078
G1 X24.83 Y35.459 E20.22695
G1 X28.944 Y30.819 E20.43321
G0 F1350 X29.243 Y31.085
G1 F600 X33.626 Y26.734 E20.63862
G1 X38.277 Y22.669 E20.84407
G1 X43.175 Y18.908 E21.04946
G1 X48.305 Y15.464 E21.25497
G1 X53.64 Y12.353 E21.46038
G1 X59.161 Y9.585 E21.66579
G1 X64.845 Y7.174 E21.87115
G1 X70.675 Y5.128 E22.07665
G1 X76.617 Y3.455 E22.28197
G1 X82.659 Y2.162 E22.48747
G1 X88.768 Y1.255 E22.69289
G1 X94.923 Y0.737 E22.89833
G1 X101.096 Y0.61 E23.10368
G1 X107.262 Y0.871 E23.30895
G1 X113.408 Y1.527 E23.51453
G1 X119.497 Y2.57 E23.72
G1 X125.505 Y3.997 E23.92538
G1 X131.409 Y5.801 E24.13071
G1 X137.192 Y7.978 E24.33624
G1 X142.821 Y10.515 E24.54159
G1 X148.281 Y13.405 E24.74706
G1 X153.543 Y16.632 E24.95237
G1 X158.594 Y20.192 E25.1579
G1 X163.405 Y24.06 E25.36322
G1 X167.965 Y28.226 E25.56865
G1 X172.25 Y32.672 E25.77402
G1 X176.246 Y37.383 E25.97949
G1 X179.934 Y42.338 E26.18493
G1 X183.3 Y47.515 E26.39031
G1 X186.332 Y52.895 E26.59571
G1 X189.016 Y58.456 E26.80109
G1 X191.343 Y64.178 E27.00654
G1 X191.624 Y64.931 E27.03327
G1 X193.399 Y70.323 E27.22208
G1 X194.965 Y76.297 E27.42749
G1 X196.149 Y82.362 E27.63302
G1 X196.946 Y88.483 E27.83832
G1 X197.354 Y94.647 E28.04379
G1 X197.373 Y100.821 E28.24913
G1 X196.996 Y106.99 E28.4547
G1 X196.232 Y113.115 E28.66
G1 X195.08 Y119.185 E28.86549
G1 X193.544 Y125.17 E29.071
G1 X191.635 Y131.041 E29.27634
G1 X189.403 Y136.668 E29.47768
G1 X186.775 Y142.25 E29.68288
G1 X183.792 Y147.661 E29.88839
G1 X180.479 Y152.869 E30.09368
G1 X176.838 Y157.861 E30.29919
G1 X172.885 Y162.613 E30.50478
G1 X168.643 Y167.101 E30.71018
G1 X164.121 Y171.314 E30.91574
G1 X159.347 Y175.229 E31.12109
G1 X154.33 Y178.836 E31.3266
G1 X149.097 Y182.116 E31.53202
G1 X143.663 Y185.058 E31.73754
G1 X138.057 Y187.649 E31.94295
G1 X132.297 Y189.881 E32.14841
G1 X126.405 Y191.742 E32.35392
G1 X120.412 Y193.228 E32.55928
G1 X114.327 Y194.328 E32.76495
G1 X108.195 Y195.041 E32.97028
G1 X102.024 Y195.365 E33.17581
G1 X95.851 Y195.297 E33.38114
G1 X89.691 Y194.838 E33.58659
G1 X83.571 Y193.988 E33.79209
G1 X77.516 Y192.751 E33.99764
G1 X71.557 Y191.136 E34.20299
G1 X65.707 Y189.143 E34.40854
G1 X59.999 Y186.784 E34.61397
G1 X54.451 Y184.069 E34.8194
G1 X49.086 Y181.007 E35.02486
G1 X43.923 Y177.609 E35.23044
G1 X38.991 Y173.897 E35.43575
G1 X34.3 Y169.873 E35.64131
G1 X29.876 Y165.561 E35.84678
G1 X25.735 Y160.978 E36.05222
G1 X21.892 Y156.144 E36.25762
G1 X18.362 Y151.076 E36.46304
G1 X15.161 Y145.789 E36.6686
G1 X12.303 Y140.314 E36.87402
G1 X9.796 Y134.669 E37.07946
G1 X7.598 Y128.724 E37.29027
G1 X5.832 Y122.795 E37.49603
G1 X4.449 Y116.774 E37.70151
G1 X3.451 Y110.677 E37.90699
G1 X2.841 Y104.531 E38.11241
G1 X2.623 Y98.36 E38.31779
G1 X2.793 Y92.189 E38.52311
G1 X3.358 Y86.034 E38.72869
G1 X4.309 Y79.934 E38.93403
G1 X5.649 Y73.9 E39.13961
G1 X7.365 Y67.971 E39.3449
G1 X9.453 Y62.16 E39.55028
G1 X11.909 Y56.49 E39.75579
G1 X14.713 Y50.992 E39.96107
G1 X17.864 Y45.678 E40.16655
G1 X21.349 Y40.574 E40.3721
G1 X25.145 Y35.705 E40.57745
G1 X29.243 Y31.085 E40.78285
G0 F1350 X29.541 Y31.351
G1 F600 X33.907 Y27.018 E40.98744
G1 X38.539 Y22.971 E41.19202
G1 X43.418 Y19.226 E41.39659
G1 X48.527 Y15.796 E41.60126
G1 X53.84 Y12.699 E41.8058
G1 X59.34 Y9.943 E42.01041
G1 X65 Y7.542 E42.2149
G1 X70.807 Y5.505 E42.41958
G1 X76.724 Y3.84 E42.62402
G1 X82.742 Y2.553 E42.82871
G1 X88.826 Y1.651 E43.03327
G1 X94.956 Y1.135 E43.23788
G1 X101.104 Y1.01 E43.44241
G1 X107.244 Y1.271 E43.64681
G1 X113.364 Y1.924 E43.85151
G1 X119.428 Y2.964 E44.05615
G1 X125.411 Y4.386 E44.26069
G1 X131.291 Y6.183 E44.46519
G1 X137.05 Y8.352 E44.66987
G1 X142.656 Y10.879 E44.87439
G1 X148.093 Y13.759 E45.07903
G1 X153.333 Y16.973 E45.28348
G1 X158.362 Y20.518 E45.48813
G1 X163.154 Y24.371 E45.69264
G1 X167.694 Y28.521 E45.89722
G1 X171.962 Y32.949 E46.10177
G1 X175.94 Y37.641 E46.30637
G1 X179.613 Y42.576 E46.51098
G1 X182.964 Y47.732 E46.71551
G1 X185.983 Y53.091 E46.92009
G1 X188.655 Y58.629 E47.1246
G1 X190.973 Y64.328 E47.32923
G1 X191.248 Y65.069 E47.35552
G1 X193.019 Y70.448 E47.54387
G1 X194.578 Y76.397 E47.74842
G1 X195.756 Y82.438 E47.95312
G1 X196.549 Y88.534 E48.15759
G1 X196.955 Y94.673 E48.36222
G1 X196.973 Y100.821 E48.5667
G1 X196.597 Y106.964 E48.7714
G1 X195.835 Y113.065 E48.9759
G1 X194.687 Y119.11 E49.18055
G1 X193.157 Y125.069 E49.38517
G1 X191.255 Y130.917 E49.58971
G1 X189.031 Y136.519 E49.79018
G1 X186.413 Y142.078 E49.99455
G1 X183.442 Y147.468 E50.19925
G1 X180.142 Y152.654 E50.4037
G1 X176.516 Y157.625 E50.60835
G1 X172.578 Y162.356 E50.81308
G1 X168.353 Y166.826 E51.01765
G1 X163.849 Y171.02 E51.22235
G1 X159.094 Y174.919 E51.42687
G1 X154.097 Y178.51 E51.63153
G1 X148.885 Y181.776 E51.83611
G1 X143.474 Y184.706 E52.04077
G1 X137.89 Y187.286 E52.24536
G1 X132.153 Y189.507 E52.44997
G1 X126.285 Y191.361 E52.65465
G1 X120.317 Y192.839 E52.85915
G1 X114.256 Y193.934 E53.064
G1 X108.149 Y194.644 E53.26849
G1 X102.004 Y194.965 E53.47315
G1 X95.857 Y194.897 E53.67761
G1 X89.722 Y194.439 E53.88223
G1 X83.627 Y193.592 E54.0869
G1 X77.597 Y192.359 E54.29161
G1 X71.663 Y190.75 E54.4961
G1 X65.837 Y188.765 E54.70081
G1 X60.153 Y186.415 E54.90538
G1 X54.628 Y183.71 E55.10999
G1 X49.285 Y180.66 E55.31461
G1 X44.144 Y177.276 E55.51932
G1 X39.232 Y173.578 E55.72382
G1 X34.561 Y169.57 E55.92853
G1 X30.156 Y165.275 E56.13316
G1 X26.032 Y160.711 E56.33775
G1 X22.206 Y155.895 E56.54232
G1 X18.691 Y150.848 E56.74689
G1 X15.504 Y145.582 E56.95161
G1 X12.658 Y140.129 E57.1562
G1 X10.162 Y134.507 E57.36078
G1 X7.973 Y128.586 E57.57075
G1 X6.216 Y122.681 E57.77566
G1 X4.839 Y116.685 E57.98028
G1 X3.846 Y110.614 E58.18488
G1 X3.24 Y104.492 E58.38949
G1 X3.023 Y98.347 E58.59401
G1 X3.193 Y92.201 E58.7985
G1 X3.756 Y86.072 E59.00321
G1 X4.704 Y79.997 E59.20771
G1 X6.039 Y73.988 E59.41244
G1 X7.749 Y68.083 E59.61691
G1 X9.829 Y62.296 E59.82145
G1 X12.275 Y56.65 E60.0261
G1 X15.069 Y51.174 E60.23057
G1 X18.208 Y45.883 E60.43519
G1 X21.679 Y40.801 E60.63988
G1 X25.46 Y35.952 E60.84439
G1 X29.541 Y31.351 E61.04894
G0 F1350 X29.84 Y31.618
G1 F600 X34.189 Y27.303 E61.25271
G1 X38.802 Y23.273 E61.45644
G1 X43.661 Y19.544 E61.66016
G1 X48.749 Y16.129 E61.86397
G1 X54.041 Y13.045 E62.06769
G1 X59.518 Y10.301 E62.27144
G1 X65.156 Y7.911 E62.47511
G1 X70.938 Y5.883 E62.67891
G1 X76.832 Y4.226 E62.88254
G1 X82.825 Y2.945 E63.08637
G1 X88.884 Y2.046 E63.2901
G1 X94.988 Y1.534 E63.49384
G1 X101.111 Y1.41 E63.69753
G1 X107.226 Y1.671 E63.9011
G1 X113.321 Y2.322 E64.10497
G1 X119.36 Y3.359 E64.30877
G1 X125.318 Y4.775 E64.51246
G1 X131.173 Y6.566 E64.7161
G1 X136.908 Y8.726 E64.91993
G1 X142.491 Y11.243 E65.12362
G1 X147.905 Y14.112 E65.32741
G1 X153.123 Y17.313 E65.53102
G1 X158.131 Y20.844 E65.73482
G1 X162.902 Y24.682 E65.93848
G1 X167.424 Y28.815 E66.14224
G1 X171.673 Y33.226 E66.34594
G1 X175.635 Y37.899 E66.54971
G1 X179.291 Y42.814 E66.75345
G1 X182.629 Y47.949 E66.95715
G1 X185.634 Y53.286 E67.16087
G1 X188.295 Y58.802 E67.36456
G1 X190.602 Y64.478 E67.56835
G1 X190.872 Y65.207 E67.5942
G1 X192.639 Y70.573 E67.7821
G1 X194.191 Y76.498 E67.98582
G1 X195.363 Y82.513 E68.18964
G1 X196.153 Y88.585 E68.3933
G1 X196.556 Y94.698 E68.59706
G1 X196.573 Y100.821 E68.80071
G1 X196.198 Y106.939 E69.00458
G1 X195.438 Y113.015 E69.20824
G1 X194.294 Y119.034 E69.41202
G1 X192.77 Y124.969 E69.61582
G1 X190.875 Y130.792 E69.81949
G1 X188.66 Y136.371 E70.01914
G1 X186.052 Y141.907 E70.22268
G1 X183.093 Y147.274 E70.42652
G1 X179.805 Y152.438 E70.63013
G1 X176.193 Y157.388 E70.83394
G1 X172.271 Y162.099 E71.03782
G1 X168.063 Y166.55 E71.24155
G1 X163.577 Y170.727 E71.44542
G1 X158.841 Y174.609 E71.64909
G1 X153.865 Y178.185 E71.8529
G1 X148.673 Y181.437 E72.05667
G1 X143.284 Y184.354 E72.26048
G1 X137.723 Y186.922 E72.46421
G1 X132.01 Y189.134 E72.66797
G1 X126.165 Y190.979 E72.87183
G1 X120.222 Y192.451 E73.07547
G1 X114.186 Y193.541 E73.27947
G1 X108.104 Y194.247 E73.48312
G1 X101.984 Y194.566 E73.68695
G1 X95.862 Y194.497 E73.89058
G1 X89.753 Y194.041 E74.09433
G1 X83.683 Y193.196 E74.29816
G1 X77.678 Y191.967 E74.50203
G1 X71.768 Y190.364 E74.7057
G1 X65.967 Y188.386 E74.90955
G1 X60.306 Y186.046 E75.11329
G1 X54.805 Y183.351 E75.31703
G1 X49.484 Y180.313 E75.52082
G1 X44.365 Y176.942 E75.72468
G1 X39.474 Y173.259 E75.92832
G1 X34.822 Y169.267 E76.1322
G1 X30.436 Y164.989 E76.33598
G1 X26.33 Y160.444 E76.5397
G1 X22.519 Y155.647 E76.74348
G1 X19.02 Y150.62 E76.94719
G1 X15.846 Y145.376 E77.15106
G1 X13.013 Y139.945 E77.3548
G1 X10.528 Y134.346 E77.55854
G1 X8.349 Y128.448 E77.76767
G1 X6.6 Y122.568 E77.97171
G1 X5.229 Y116.596 E78.1755
G1 X4.241 Y110.55 E78.37926
G1 X3.638 Y104.454 E78.583
G1 X3.423 Y98.333 E78.78671
G1 X3.593 Y92.213 E78.99035
G1 X4.154 Y86.109 E79.19422
G1 X5.099 Y80.059 E79.39788
G1 X6.429 Y74.076 E79.60174
G1 X8.132 Y68.195 E79.80538
G1 X10.205 Y62.432 E80.00908
G1 X12.642 Y56.809 E80.21291
G1 X15.425 Y51.357 E80.4165
G1 X18.551 Y46.088 E80.62027
G1 X22.008 Y41.027 E80.82412
G1 X25.775 Y36.199 E81.0278
G1 X29.84 Y31.618 E81.2315
G0 F1350 X30.139 Y31.884
G1 F600 X34.47 Y27.587 E81.43442
G1 X39.064 Y23.575 E81.63728
G1 X43.904 Y19.861 E81.84019
G1 X48.971 Y16.461 E82.04315
G1 X54.242 Y13.391 E82.24603
G1 X59.697 Y10.659 E82.44895
G1 X65.311 Y8.28 E82.65174
G1 X71.07 Y6.261 E82.85472
G1 X76.939 Y4.611 E83.05749
G1 X82.907 Y3.336 E83.26046
G1 X88.942 Y2.442 E83.46338
G1 X95.021 Y1.933 E83.66628
G1 X101.118 Y1.81 E83.8691
G1 X107.208 Y2.07 E84.07184
G1 X113.277 Y2.72 E84.27485
G1 X119.291 Y3.753 E84.47781
G1 X125.224 Y5.164 E84.68064
G1 X131.055 Y6.948 E84.88346
G1 X136.766 Y9.1 E85.08644
G1 X142.326 Y11.608 E85.28931
G1 X147.717 Y14.465 E85.49224
G1 X152.913 Y17.653 E85.695
G1 X157.9 Y21.171 E85.89798
G1 X162.651 Y24.993 E86.10079
G1 X167.153 Y29.11 E86.3037
G1 X171.384 Y33.503 E86.50656
G1 X175.329 Y38.157 E86.70948
G1 X178.97 Y43.052 E86.91239
G1 X182.293 Y48.166 E87.11523
G1 X185.285 Y53.482 E87.31812
G1 X187.934 Y58.975 E87.52096
G1 X190.231 Y64.628 E87.72391
G1 X190.497 Y65.344 E87.74931
G1 X192.259 Y70.698 E87.93678
G1 X193.804 Y76.598 E88.13963
G1 X194.97 Y82.589 E88.34263
G1 X195.756 Y88.635 E88.54542
G1 X196.156 Y94.724 E88.74837
G1 X196.173 Y100.822 E88.95119
G1 X195.799 Y106.913 E89.15416
G1 X195.041 Y112.964 E89.35699
G1 X193.901 Y118.959 E89.55996
G1 X192.383 Y124.869 E89.76291
G1 X190.494 Y130.668 E89.96576
G1 X188.288 Y136.222 E90.16452
G1 X185.69 Y141.736 E90.36726
G1 X182.743 Y147.08 E90.57023
G1 X179.468 Y152.222 E90.773
G1 X175.87 Y157.152 E90.976
G1 X171.965 Y161.843 E91.17901
G1 X167.773 Y166.275 E91.38191
G1 X163.305 Y170.434 E91.58493
G1 X158.588 Y174.299 E91.78776
G1 X153.632 Y177.86 E91.99074
G1 X148.462 Y181.097 E92.19361
G1 X143.095 Y184.002 E92.39659
G1 X137.556 Y186.559 E92.5995
G1 X131.866 Y188.761 E92.80243
G1 X126.046 Y190.597 E93.00541
G1 X120.126 Y192.062 E93.20825
G1 X114.116 Y193.147 E93.41137
G1 X108.059 Y193.849 E93.61418
G1 X101.965 Y194.166 E93.81714
G1 X95.867 Y194.097 E94.01997
G1 X89.783 Y193.642 E94.22289
G1 X83.739 Y192.8 E94.42586
G1 X77.759 Y191.575 E94.62888
G1 X71.874 Y189.978 E94.8317
G1 X66.097 Y188.008 E95.03471
G1 X60.46 Y185.676 E95.2376
G1 X54.981 Y182.992 E95.44053
G1 X49.683 Y179.967 E95.64344
G1 X44.586 Y176.609 E95.84645
G1 X39.715 Y172.94 E96.04928
G1 X35.084 Y168.964 E96.25229
G1 X30.716 Y164.703 E96.45524
G1 X26.627 Y160.176 E96.65814
G1 X22.833 Y155.399 E96.86104
G1 X19.349 Y150.392 E97.06392
G1 X16.189 Y145.17 E97.26693
G1 X13.368 Y139.761 E97.46983
G1 X10.894 Y134.184 E97.67276
G1 X8.724 Y128.31 E97.88103
G1 X6.983 Y122.455 E98.0842
G1 X5.619 Y116.508 E98.28713
G1 X4.636 Y110.486 E98.49007
G1 X4.036 Y104.415 E98.69298
G1 X3.822 Y98.32 E98.89582
G1 X3.993 Y92.225 E99.09863
G1 X4.552 Y86.147 E99.30163
G1 X5.494 Y80.122 E99.50446
G1 X6.82 Y74.163 E99.7075
G1 X8.516 Y68.307 E99.91028
G1 X10.581 Y62.568 E100.11314
G1 X13.009 Y56.969 E100.31612
G1 X15.781 Y51.54 E100.51887
G1 X18.895 Y46.293 E100.7218
G1 X22.338 Y41.253 E100.92481
G1 X26.089 Y36.445 E101.12764
G1 X30.139 Y31.884 E101.33051
G0 F1350 X30.437 Y32.15
G1 F600 X34.751 Y27.872 E101.53258
G1 X39.327 Y23.877 E101.73462
G1 X44.147 Y20.179 E101.93668
G1 X49.193 Y16.794 E102.13878
G1 X54.442 Y13.737 E102.34081
G1 X59.875 Y11.017 E102.54289
G1 X65.466 Y8.648 E102.74486
G1 X71.202 Y6.639 E102.947
G1 X77.047 Y4.996 E103.14894
G1 X82.99 Y3.727 E103.35106
G1 X89 Y2.838 E103.55313
